X:389
T: HERZU EIN NEUER PANTALON
N: E0310
O: Europa, Mitteleuropa, Deutschland
R: historisches Lied, Spott - Lied
M: 4/4
L: 1/8
K: F
c2 | c2c2d2d2 | c3BA2
F2 | A2c2B2A2 | G4F2
c2 | c2c2d2d2 | c3BA2
F2 | A2c2B2A2 | G4F2
f2 | f3ed2d2 | e3dc2
c2 | d2e2f2e2 | d4c2
c2 | A3GF2c2 | A3GF2
c2 | d2c2B2A2 | G4F2

